assets/js/back-end/assets/icons/image-matching.svg

<svg clip-rule="evenodd" fill-rule="evenodd" stroke-linejoin="round" stroke-miterlimit="2" viewBox="0 0 28 28" xmlns="http://www.w3.org/2000/svg"><path d="m3.593 3.475h21.773v21.371h-21.773z" fill="#ebebeb"/><path d="m28 3c0-1.656-1.344-3-3-3h-22c-1.656 0-3 1.344-3 3v22c0 1.656 1.344 3 3 3h22c1.656 0 3-1.344 3-3zm-19.167 7.667h-1.416v8.5c0 .781.635 1.416 1.416 1.416h8.5v-1.416h-8.5zm11.334-4.25h-8.5c-.782 0-1.417.635-1.417 1.416v8.5c0 .782.635 1.417 1.417 1.417h8.5c.781 0 1.416-.635 1.416-1.417v-8.5c0-.781-.635-1.416-1.416-1.416zm-8.5 9.916v-8.5h8.5l.001 8.5zm2.833-2.833-.708-.708-1.417 2.125h7.083l-2.833-4.25z" fill="#d67af1"/></svg>

<?xml version="1.0" encoding="UTF-8" standalone="no"?>
<!DOCTYPE svg PUBLIC "-//W3C//DTD SVG 1.1//EN" "http://www.w3.org/Graphics/SVG/1.1/DTD/svg11.dtd">
<svg width="100%" height="100%" viewBox="0 0 28 28" version="1.1" xmlns="http://www.w3.org/2000/svg" xmlns:xlink="http://www.w3.org/1999/xlink" xml:space="preserve" xmlns:serif="http://www.serif.com/" style="fill-rule:evenodd;clip-rule:evenodd;stroke-linejoin:round;stroke-miterlimit:2;">
    <path d="M28,3C28,1.344 26.656,0 25,0L3,0C1.344,0 0,1.344 0,3L0,25C0,26.656 1.344,28 3,28L25,28C26.656,28 28,26.656 28,25L28,3ZM8.833,10.667L7.417,10.667L7.417,19.167C7.417,19.948 8.052,20.583 8.833,20.583L17.333,20.583L17.333,19.167L8.833,19.167L8.833,10.667ZM20.167,6.417L11.667,6.417C10.885,6.417 10.25,7.052 10.25,7.833L10.25,16.333C10.25,17.115 10.885,17.75 11.667,17.75L20.167,17.75C20.948,17.75 21.583,17.115 21.583,16.333L21.583,7.833C21.583,7.052 20.948,6.417 20.167,6.417ZM11.667,16.333L11.667,7.833L20.167,7.833L20.168,16.333L11.667,16.333ZM14.5,13.5L13.792,12.792L12.375,14.917L19.458,14.917L16.625,10.667L14.5,13.5Z" style="fill:rgb(214,122,241);"/>
</svg>
